X:1
T:Davy
M:4/4
L:1/4
K:E
 B G B G| B G F E| G G/2G/2 E C| B,/2B,/2 E/2E/2 F E| z G/2G/2 G F|\
 E G F E| G G/2G/2 F/2F/2 E| B,/2 E E/2 F E|
